X: 8630
T: Crooked Still
R: reel
M: 4/4
K: Dmajor
|:GBdf efdB|dBf2 eddF|GBdf efdB|dafe edd2|
GBdf efdB|dBf2 ed(3Bcd|affe ed(3ABc|dfef d3B:|
|:DG(3Bcd a2gf|DG(3Bcd a2gf|DF(3Bcd f2ed|deA2 A3A|
DG(3Bcd a2gf|DG(3Bcd a2gf|DF(3Bcd f2ed|deA2 A3A:|

